X: 37437
T: Sliabh Luachra, The
R: polka
M: 2/4
K: Dmajor
|:dA BA|dA BA|~B2 Bd|e2 ef/e/|df Bd|
Ad FD|1 ~E2 EF/E/|DE FA:|2 ~E2 EF|D2 E2||
|:FA AB|Ad dB|AF ED/E/|FE ED/E/|FA AB|
Ad dB|1 AF EF|D2 E2:|2 AF EF/E/|DE FA||

